X: 49
T:Old Frog Dance - Oddington
M:6/8
L:1/8
Q:80
S:OY(A1 A2 B3 A2)4
N:Tune as played for Grand Union Morris
N:www.grandunionmorris.co.uk
K:D
"A1" A|FED FGA|BcB A2 A|dcd Bed|d3 A2||
"A2"G |FED FGA|BcB A2 A|dcd Bed|cBc d2||
"B" d|cde efe|ecA ABc|d2 d dcB|BGG G3|FGA D3|GAB E3|FGA Bed|
cBc d2||
